dist/assets/img/corporulia/answerus/messages/message_task_3_1200.svg

<svg width="464" height="204" viewBox="0 0 464 204" fill="none" xmlns="http://www.w3.org/2000/svg">
<g filter="url(#filter0_di_1419_61642)">
<path fill-rule="evenodd" clip-rule="evenodd" d="M249.807 28.3183C247.869 28.308 245.939 28.2977 244.021 28.2869C238.589 28.2564 233.076 28.2123 227.515 28.1678C158.915 27.6188 82.7791 27.0096 56.284 51.0408C36.0018 69.4369 34.8959 90.4835 51.6826 108.747C54.0389 111.31 54.9391 115.095 52.9113 117.926C50.755 120.936 48.224 123.287 45.2553 126.044C44.7877 126.479 44.9609 127.246 45.5871 127.369C50.2486 128.289 55.3434 126.284 59.5717 123.603C62.6903 121.625 66.7109 121.326 69.8619 123.252C82.2017 130.791 98.2976 137.409 118.022 142.568C186.219 160.405 279.373 150.854 344.417 131.305C402.486 113.852 441.458 79.8665 415.819 53.0628C392.877 29.0783 316.049 28.6701 249.807 28.3183Z" fill="white"/>
</g>
<defs>
<filter id="filter0_di_1419_61642" x="0" y="0" width="463.85" height="204" filterUnits="userSpaceOnUse" color-interpolation-filters="sRGB">
<feFlood flood-opacity="0" result="BackgroundImageFix"/>
<feColorMatrix in="SourceAlpha" type="matrix" values="0 0 0 0 0 0 0 0 0 0 0 0 0 0 0 0 0 0 127 0" result="hardAlpha"/>
<feOffset dy="12"/>
<feGaussianBlur stdDeviation="20"/>
<feComposite in2="hardAlpha" operator="out"/>
<feColorMatrix type="matrix" values="0 0 0 0 0.909804 0 0 0 0 0.313726 0 0 0 0 0.470588 0 0 0 1 0"/>
<feBlend mode="normal" in2="BackgroundImageFix" result="effect1_dropShadow_1419_61642"/>
<feBlend mode="normal" in="SourceGraphic" in2="effect1_dropShadow_1419_61642" result="shape"/>
<feColorMatrix in="SourceAlpha" type="matrix" values="0 0 0 0 0 0 0 0 0 0 0 0 0 0 0 0 0 0 127 0" result="hardAlpha"/>
<feOffset dy="-4"/>
<feGaussianBlur stdDeviation="4"/>
<feComposite in2="hardAlpha" operator="arithmetic" k2="-1" k3="1"/>
<feColorMatrix type="matrix" values="0 0 0 0 0.909804 0 0 0 0 0.313726 0 0 0 0 0.470588 0 0 0 0.16 0"/>
<feBlend mode="normal" in2="shape" result="effect2_innerShadow_1419_61642"/>
</filter>
</defs>
</svg>

<svg width="464" height="204" viewBox="0 0 464 204" fill="none" xmlns="http://www.w3.org/2000/svg"><g filter="url(#filter0_di_1419_61642)"><path fill-rule="evenodd" clip-rule="evenodd" d="M249.807 28.318l-5.786-.031c-5.432-.03-10.945-.075-16.506-.12-68.6-.548-144.736-1.157-171.231 22.874-20.282 18.396-21.388 39.443-4.601 57.706 2.356 2.563 3.256 6.348 1.228 9.179-2.156 3.01-4.687 5.361-7.656 8.118-.467.435-.294 1.202.332 1.325 4.662.92 9.756-1.085 13.985-3.766 3.118-1.978 7.139-2.277 10.29-.351 12.34 7.539 28.436 14.157 48.16 19.316 68.197 17.837 161.351 8.286 226.395-11.263 58.069-17.453 97.041-51.439 71.402-78.242-22.942-23.985-99.77-24.393-166.012-24.745z" fill="#fff"/></g><defs><filter id="filter0_di_1419_61642" x="0" y="0" width="463.85" height="204" filterUnits="userSpaceOnUse" color-interpolation-filters="sRGB"><feFlood flood-opacity="0" result="BackgroundImageFix"/><feColorMatrix in="SourceAlpha" values="0 0 0 0 0 0 0 0 0 0 0 0 0 0 0 0 0 0 127 0" result="hardAlpha"/><feOffset dy="12"/><feGaussianBlur stdDeviation="20"/><feComposite in2="hardAlpha" operator="out"/><feColorMatrix values="0 0 0 0 0.909804 0 0 0 0 0.313726 0 0 0 0 0.470588 0 0 0 1 0"/><feBlend in2="BackgroundImageFix" result="effect1_dropShadow_1419_61642"/><feBlend in="SourceGraphic" in2="effect1_dropShadow_1419_61642" result="shape"/><feColorMatrix in="SourceAlpha" values="0 0 0 0 0 0 0 0 0 0 0 0 0 0 0 0 0 0 127 0" result="hardAlpha"/><feOffset dy="-4"/><feGaussianBlur stdDeviation="4"/><feComposite in2="hardAlpha" operator="arithmetic" k2="-1" k3="1"/><feColorMatrix values="0 0 0 0 0.909804 0 0 0 0 0.313726 0 0 0 0 0.470588 0 0 0 0.16 0"/><feBlend in2="shape" result="effect2_innerShadow_1419_61642"/></filter></defs></svg>
